symbols/de/bostrab/g4-{5}.svg

<?xml version="1.0" encoding="UTF-8" standalone="no"?>
<svg
   width="10.87026"
   height="16"
   viewBox="0 0 10.87026 16"
   version="1.1"
   id="svg2"
   sodipodi:docname="g4-{5}.svg"
   inkscape:version="1.4.2 (ebf0e940d0, 2025-05-08)"
   xmlns:inkscape="http://www.inkscape.org/namespaces/inkscape"
   xmlns:sodipodi="http://sodipodi.sourceforge.net/DTD/sodipodi-0.dtd"
   xmlns="http://www.w3.org/2000/svg"
   xmlns:svg="http://www.w3.org/2000/svg">
  <defs
     id="defs2" />
  <sodipodi:namedview
     id="namedview2"
     pagecolor="#ffffff"
     bordercolor="#999999"
     borderopacity="1"
     inkscape:showpageshadow="0"
     inkscape:pageopacity="0"
     inkscape:pagecheckerboard="0"
     inkscape:deskcolor="#d1d1d1"
     inkscape:zoom="12.84375"
     inkscape:cx="2.0243309"
     inkscape:cy="7.7858881"
     inkscape:window-width="1920"
     inkscape:window-height="1008"
     inkscape:window-x="1920"
     inkscape:window-y="0"
     inkscape:window-maximized="1"
     inkscape:current-layer="svg2" />
  <path
     fill-rule="nonzero"
     fill="rgb(100%, 100%, 100%)"
     fill-opacity="1"
     stroke-width="8.48"
     stroke-linecap="round"
     stroke-linejoin="round"
     stroke="rgb(0%, 0%, 0%)"
     stroke-opacity="1"
     stroke-miterlimit="4"
     d="M -39.490669 -101.159279 L 111.043329 -101.159279 L 111.043329 121.261464 L -39.490669 121.261464 Z M -39.490669 -101.159279 "
     transform="matrix(0.0693365, 0, 0, 0.0693365, 2.976426, 7.279655)"
     id="path1" />
  <path
     fill-rule="nonzero"
     fill="#000000"
     fill-opacity="1"
     d="m 7.5796601,1.8554691 v 2.492187 h 0.660157 c 0,-0.199218 0.203125,-0.257812 0.351562,-0.257812 0.203125,0 0.375,0.121094 0.375,0.304687 l -0.00391,0.976563 c 0,0.292968 -0.097656,0.535156 -0.363281,0.535156 -0.265625,0 -0.378906,-0.183594 -0.378906,-0.535156 h -0.640622 c 0,0.625 0.277344,1.195312 1.019532,1.195312 0.613281,0 1.019531,-0.429687 1.019531,-0.960937 0,-0.410157 0.00391,-0.828125 0,-1.246094 -0.011719,-0.539063 -0.359375,-0.828125 -0.753906,-0.835937 -0.214844,0 -0.46875,0.09375 -0.625,0.238281 v -1.28125 h 1.378906 v -0.621094 h -1.507813 v -0.00391 z m 0,0"
     id="path2" />
  <path
     fill-rule="nonzero"
     fill="#000000"
     fill-opacity="1"
     d="m 4.6030931,3.2617189 c -0.9804693,0.00781 -1.9687503,0.6835939 -1.9687503,2.003906 h -0.015625 v 5.4687501 h 0.015625 c 0.019531,2.675781 3.9414063,2.648438 3.9414063,0 h 0.01172 V 5.2656249 h -0.01172 c 0,-1.34375 -0.988281,-2.007812 -1.972656,-2.003906 z m 0,1.191406 c 0.414062,-0.00391 0.835937,0.265625 0.835937,0.8125 h -0.0039 v 5.4687501 h 0.0039 c 0,1.078125 -1.664062,1.078125 -1.664062,-0.01953 V 5.2656249 h -0.0078 c 0,-0.5351561 0.417969,-0.808593 0.835938,-0.8125 z m 0,0"
     id="path2-7" />
</svg>

<?xml version="1.0" encoding="UTF-8"?>
<svg xmlns="http://www.w3.org/2000/svg" xmlns:xlink="http://www.w3.org/1999/xlink" width="10.87026" height="16" viewBox="0 0 10.87026 16">
<path fill-rule="nonzero" fill="rgb(100%, 100%, 100%)" fill-opacity="1" stroke-width="8.48" stroke-linecap="round" stroke-linejoin="round" stroke="rgb(0%, 0%, 0%)" stroke-opacity="1" stroke-miterlimit="4" d="M -39.490669 -101.159279 L 111.043329 -101.159279 L 111.043329 121.261464 L -39.490669 121.261464 Z M -39.490669 -101.159279 " transform="matrix(0.0693365, 0, 0, 0.0693365, 2.976426, 7.279655)"/>
<path fill-rule="nonzero" fill="rgb(0%, 0%, 0%)" fill-opacity="1" d="M 7.578125 1.855469 L 7.578125 4.347656 L 8.238281 4.347656 C 8.238281 4.148438 8.441406 4.089844 8.589844 4.089844 C 8.792969 4.089844 8.964844 4.210938 8.964844 4.394531 L 8.960938 5.371094 C 8.960938 5.664062 8.863281 5.90625 8.597656 5.90625 C 8.332031 5.90625 8.21875 5.722656 8.21875 5.371094 L 7.578125 5.371094 C 7.578125 5.996094 7.855469 6.566406 8.597656 6.566406 C 9.210938 6.566406 9.617188 6.136719 9.617188 5.605469 C 9.617188 5.195312 9.621094 4.777344 9.617188 4.359375 C 9.605469 3.820312 9.257812 3.53125 8.863281 3.523438 C 8.648438 3.523438 8.394531 3.617188 8.238281 3.761719 L 8.238281 2.480469 L 9.617188 2.480469 L 9.617188 1.859375 L 8.109375 1.859375 L 8.109375 1.855469 Z M 7.578125 1.855469 "/>
<path fill-rule="nonzero" fill="rgb(0%, 0%, 0%)" fill-opacity="1" d="M 4.601562 3.261719 C 3.621094 3.269531 2.632812 3.945312 2.632812 5.265625 L 2.617188 5.265625 L 2.617188 10.734375 L 2.632812 10.734375 C 2.652344 13.410156 6.574219 13.382812 6.574219 10.734375 L 6.585938 10.734375 L 6.585938 5.265625 L 6.574219 5.265625 C 6.574219 3.921875 5.585938 3.257812 4.601562 3.261719 Z M 4.601562 4.453125 C 5.015625 4.449219 5.4375 4.71875 5.4375 5.265625 L 5.433594 5.265625 L 5.433594 10.734375 L 5.4375 10.734375 C 5.4375 11.8125 3.773438 11.8125 3.773438 10.714844 L 3.773438 5.265625 L 3.765625 5.265625 C 3.765625 4.730469 4.183594 4.457031 4.601562 4.453125 Z M 4.601562 4.453125 "/>
</svg>
